X:561
T:
S:Efter »Florsen» i Burs.
R:vals
O:Gotland, Burs
M:3/4
L:1/8
K:C
E2|EGcEGc|eddDGc|BdBDGB|dccGEG|EGcEGc|eddDGc|
BdBGBd|c4::cB|ABcBcd|e2 dc B2|Bcd^cde|f2 ed c2|
cegece|ecEGce|efdBGB|c4:|
K:G
|:Bc|d2 ed^cd|dbbB d2|caaA c2|BggGBc|d2 ed^cd|
dbbB d2|caaAfa|g4:|

